assets/icons/24px/stroke/arrow-circle-forward-fiveteen-24px.svg

<svg width="24" height="24" viewBox="0 0 24 24" fill="none" xmlns="http://www.w3.org/2000/svg">
<path fill-rule="evenodd" clip-rule="evenodd" d="M16.1135 2.30587C16.4969 1.90831 17.1299 1.89679 17.5275 2.28015L20.1941 4.85152C20.3896 5.03999 20.5 5.29984 20.5 5.57136C20.5 5.84288 20.3896 6.10273 20.1941 6.2912L17.5275 8.86271C17.13 9.24608 16.4969 9.23458 16.1135 8.83703C15.7302 8.43948 15.7417 7.80642 16.1392 7.42305L17.0224 6.57137L12.5 6.57136C8.56459 6.57136 5.5 9.24909 5.5 13.2857C5.5 17.3223 8.56459 20 12.5 20C16.2946 20 18.8778 17.0681 18.8778 13.2857C18.8778 12.7334 19.3255 12.2857 19.8778 12.2857C20.4301 12.2857 20.8778 12.7334 20.8778 13.2857C20.8778 18.0243 17.542 22 12.5 22C7.59886 22 3.5 18.5607 3.5 13.2857C3.5 8.01062 7.59886 4.57136 12.5 4.57136L17.0223 4.57137L16.1392 3.71985C15.7417 3.33649 15.7301 2.70343 16.1135 2.30587Z" fill="white"/>
<path fill-rule="evenodd" clip-rule="evenodd" d="M10.0563 10.034C10.2484 10.1088 10.375 10.2938 10.375 10.5V16.5C10.375 16.7762 10.1511 17 9.875 17C9.59886 17 9.375 16.7762 9.375 16.5V11.7854L8.86858 12.3379C8.68198 12.5414 8.3657 12.5552 8.16214 12.3686C7.95858 12.182 7.94483 11.8657 8.13143 11.6622L9.50643 10.1622C9.64575 10.0102 9.8641 9.95928 10.0563 10.034ZM12.1398 10.4025C12.1863 10.1685 12.3917 10 12.6302 10H15.875C16.1511 10 16.375 10.2239 16.375 10.5C16.375 10.7762 16.1511 11 15.875 11H13.0406L12.7083 12.6709C13.0376 12.5541 13.4304 12.5 14 12.5C14.6621 12.5 15.2907 12.634 15.7444 13.0816C16.1987 13.5296 16.375 14.1902 16.375 15C16.375 15.453 16.2707 15.8327 16.073 16.1386C15.8756 16.4441 15.6075 16.6412 15.3368 16.7664C14.8303 17.0005 14.2695 17.0002 14.018 17C14.0118 17 14.0058 17 14 17L13.9865 17C13.7349 17.0001 13.1778 17.0002 12.673 16.8557C12.414 16.7816 12.1261 16.6582 11.8971 16.4406C11.6533 16.209 11.5 15.892 11.5 15.5C11.5 15.2239 11.7239 15 12 15C12.2761 15 12.5 15.2239 12.5 15.5C12.5 15.6081 12.5336 15.666 12.5858 15.7156C12.6529 15.7793 12.7703 15.8434 12.9481 15.8943C13.3077 15.9972 13.7396 16 14 16C14.2633 16 14.6249 15.9937 14.9171 15.8587C15.052 15.7963 15.158 15.7121 15.2331 15.5958C15.3081 15.4798 15.375 15.297 15.375 15C15.375 14.3099 15.2215 13.9704 15.0422 13.7935C14.8623 13.6161 14.5533 13.5 14 13.5C13.4257 13.5 13.1579 13.5626 12.9753 13.6395C12.88 13.6796 12.7921 13.7303 12.6804 13.8023C12.6486 13.8228 12.6121 13.8468 12.5721 13.8733C12.4832 13.932 12.3767 14.0022 12.2655 14.0701C12.096 14.1733 11.8815 14.1666 11.7189 14.053C11.5562 13.9393 11.4761 13.7402 11.5148 13.5456L12.1398 10.4025Z" fill="white"/>
</svg>

<svg width="24" height="24" fill="none" xmlns="http://www.w3.org/2000/svg"><path fill-rule="evenodd" clip-rule="evenodd" d="M16.113 2.306a1 1 0 0 1 1.415-.026l2.666 2.572a1 1 0 0 1 0 1.44l-2.666 2.57a1 1 0 0 1-1.389-1.439l.883-.852H12.5c-3.935 0-7 2.678-7 6.715 0 4.036 3.065 6.714 7 6.714 3.795 0 6.378-2.932 6.378-6.714a1 1 0 1 1 2 0c0 4.738-3.336 8.714-8.378 8.714-4.901 0-9-3.44-9-8.714 0-5.275 4.099-8.715 9-8.715h4.522l-.883-.851a1 1 0 0 1-.026-1.414z" fill="#fff"/><path fill-rule="evenodd" clip-rule="evenodd" d="M10.056 10.034a.5.5 0 0 1 .319.466v6a.5.5 0 1 1-1 0v-4.715l-.506.553a.5.5 0 0 1-.738-.676l1.375-1.5a.5.5 0 0 1 .55-.128zm2.084.368a.5.5 0 0 1 .49-.402h3.245a.5.5 0 0 1 0 1h-2.834l-.333 1.67c.33-.116.722-.17 1.292-.17.662 0 1.29.134 1.744.582.455.448.631 1.108.631 1.918 0 .453-.104.833-.302 1.139a1.72 1.72 0 0 1-.736.627c-.507.235-1.067.234-1.319.234h-.032c-.251 0-.808 0-1.313-.144-.259-.074-.547-.198-.776-.415a1.263 1.263 0 0 1-.397-.941.5.5 0 0 1 1 0c0 .108.034.166.086.216a.885.885 0 0 0 .362.178c.36.103.792.106 1.052.106.263 0 .625-.006.917-.141a.722.722 0 0 0 .316-.263c.075-.116.142-.299.142-.596 0-.69-.153-1.03-.333-1.207-.18-.177-.489-.293-1.042-.293-.574 0-.842.063-1.025.14-.095.04-.183.09-.295.162l-.108.071c-.089.059-.195.13-.306.197a.5.5 0 0 1-.751-.524l.625-3.143z" fill="#fff"/></svg>
